packages/kaspersky-hexa-ui-icons/src/iconsSVGs/16x12/FlagTj.svg

<svg width="16" height="12" viewBox="0 0 16 12" fill="none" xmlns="http://www.w3.org/2000/svg">
<g clip-path="url(#clip0_41818_3838)">
<rect x="0.25" y="0.25" width="15.5" height="11.5" rx="1.75" fill="white" stroke="#F5F5F5" stroke-width="0.5"/>
<mask id="mask0_41818_3838" style="mask-type:luminance" maskUnits="userSpaceOnUse" x="0" y="0" width="16" height="12">
<rect x="0.25" y="0.25" width="15.5" height="11.5" rx="1.75" fill="white" stroke="white" stroke-width="0.5"/>
</mask>
<g mask="url(#mask0_41818_3838)">
<path fill-rule="evenodd" clip-rule="evenodd" d="M0 4H16V0H0V4Z" fill="#D9101C"/>
<path fill-rule="evenodd" clip-rule="evenodd" d="M0 12H16V8H0V12Z" fill="#0F7811"/>
<path d="M8.00037 5.59961C8.21061 5.59998 8.38123 5.95879 8.38123 6.40039H8.74255C8.9634 6.40039 9.14284 6.57898 9.14294 6.7998C9.14294 7.02072 8.96347 7.2002 8.74255 7.2002H7.2572C7.03629 7.2002 6.85681 7.02072 6.85681 6.7998C6.85692 6.57898 7.03635 6.40039 7.2572 6.40039H7.61951C7.61951 5.95856 7.78997 5.59961 8.00037 5.59961ZM5.71423 5.59961C5.92463 5.59961 6.09509 5.77909 6.09509 6C6.09509 6.22091 5.92463 6.40039 5.71423 6.40039C5.50388 6.40034 5.33337 6.22088 5.33337 6C5.33337 5.77912 5.50388 5.59966 5.71423 5.59961ZM10.2855 5.59961C10.4959 5.59961 10.6664 5.77909 10.6664 6C10.6664 6.22091 10.4959 6.40039 10.2855 6.40039C10.0752 6.40026 9.90466 6.22083 9.90466 6C9.90466 5.77917 10.0752 5.59974 10.2855 5.59961ZM7.23767 4.7998C7.44807 4.7998 7.61951 4.97928 7.61951 5.2002C7.61941 5.42102 7.448 5.59961 7.23767 5.59961C7.02755 5.59935 6.85691 5.42086 6.85681 5.2002C6.85681 4.97944 7.02749 4.80007 7.23767 4.7998ZM8.76208 4.7998C8.97242 4.79988 9.14294 4.97933 9.14294 5.2002C9.14284 5.42097 8.97235 5.59953 8.76208 5.59961C8.55175 5.59961 8.38133 5.42102 8.38123 5.2002C8.38123 4.97928 8.55169 4.7998 8.76208 4.7998Z" fill="#FAD14E"/>
</g>
</g>
<defs>
<clipPath id="clip0_41818_3838">
<rect width="16" height="12" fill="white"/>
</clipPath>
</defs>
</svg>

<svg xmlns="http://www.w3.org/2000/svg" width="16" height="12" fill="none" viewBox="0 0 16 12"><g clip-path="url(#a)"><rect width="16" height="12" fill="#fff" stroke="#f5f5f5" rx="2"/><mask id="b" width="16" height="12" x="0" y="0" maskUnits="userSpaceOnUse" style="mask-type:luminance"><rect width="16" height="12" fill="#fff" stroke="#fff" rx="2"/></mask><g mask="url(#b)"><path fill="#d9101c" fill-rule="evenodd" d="M0 4h16V0H0z" clip-rule="evenodd"/><path fill="#0f7811" fill-rule="evenodd" d="M0 12h16V8H0z" clip-rule="evenodd"/><path fill="#fad14e" d="M8.0004 5.5996c.2102.0004.3808.3592.3808.8008h.3613a.4.4 0 0 1 .4004.3994.4007.4007 0 0 1-.4003.4004H7.2572a.4007.4007 0 0 1-.4004-.4004.4.4 0 0 1 .4004-.3994h.3623c0-.4418.1705-.8008.3809-.8008m-2.2862 0c.2104 0 .3809.1795.3809.4004 0 .221-.1705.4004-.3809.4004-.2103 0-.3808-.1795-.3808-.4004s.1705-.4003.3808-.4004m4.5713 0c.2104 0 .3809.1795.3809.4004 0 .221-.1705.4004-.3809.4004-.2103-.0001-.3808-.1796-.3808-.4004s.1705-.4003.3808-.4004m-3.0478-.7998c.2104 0 .3818.1795.3818.4004s-.1715.3994-.3818.3994c-.2102-.0002-.3808-.1787-.3809-.3994 0-.2208.1707-.4001.3809-.4004m1.5244 0c.2103 0 .3808.1795.3808.4004s-.1705.3993-.3808.3994-.3808-.1786-.3809-.3994c0-.221.1705-.4004.3809-.4004"/></g></g><defs><clipPath id="a"><path fill="#fff" d="M0 0h16v12H0z"/></clipPath></defs></svg>
